X: 27
T:Garrett Barry's Jig
M:6/8
L:1/8
R:Double Jig
K:DMix
DEF ~G3|AGE ~c3|dcA d2e|fed cAG|!
~F3 GFG|AGA cde|dcA GEA|DED D3:|!
|:dcA d2e|fed ege|dcA c2d|efd ecA|!
dcA d2e|fed ege|dcA GEA|DED D3:|]!
